X:440
T:Doctor O'Neill
R:jig
Z:Transcribed by Dave Marshall
M:6/8
K:D
~d3 AFD|E2F G2A|~B3 Bcd|AFD EFA|
~d3 AFD|E2F G2A|~B3 Bcd|AFD D2A:|
|:~d3 cBA|dfe dcB|AFA Bcd|AGF EFA|
~d3 cBA|dfe dcB|AFA Bcd| AFD D3:|
|:~f3 afe|dcd fed|~g3 faf|gee e2g|
~f3 afe|dcd fed|~g3 fag| fdd d3:|
|:~f3 ece|dcB AFd|AFd AFd|AFD ~E3|
~f3 ece|dcB AFA|~B3 Bcd| AFD D3 :|
|:~F3 ~G3|~F3 FED|~F3 GAB|AFD ~E3|
~F3 ~G3|~F3 FED|~B3 Bcd| AFD D3:|
